Numix-GalliumOS/64/places/start-here.svg

<svg width="64" xmlns="http://www.w3.org/2000/svg" height="64" viewBox="0 0 64 64" xmlns:xlink="http://www.w3.org/1999/xlink">
<path style="fill:#dc322f" d="M 64 32 C 64.011719 49.671875 49.683594 64.003906 32 64.003906 C 14.316406 64.003906 -0.0117188 49.671875 0 32 C -0.0117188 14.328125 14.316406 -0.00390625 32 -0.00390625 C 49.683594 -0.00390625 64.011719 14.328125 64 32 Z "/>
<path style="fill:none;stroke:#f9f9f9;stroke-linecap:round;stroke-width:7.299" d="M 73.328125 59.15625 L 73.328125 75.1875 M 73.328125 196.8125 L 73.328125 113.84375 C 73.328125 83.546875 97.734375 59.15625 128.046875 59.15625 C 158.359375 59.15625 182.765625 83.546875 182.765625 113.84375 L 182.765625 196.8125 " transform="scale(.25)"/>
</svg>

<svg xmlns="http://www.w3.org/2000/svg" viewBox="0 0 64 64">
 <path d="m 64 32 c 0.012 17.672 -14.316 32 -32 32 c -17.684 0 -32.01 -14.332 -32 -32 c -0.012 -17.672 14.316 -32 32 -32 c 17.684 0 32.01 14.332 32 32 Z" style="fill:#dc322f"/>
 <path d="m 73.33 59.16 l 0 16.03 m 0 121.63 l 0 -82.969 c 0 -30.3 24.406 -54.688 54.719 -54.688 c 30.31 0 54.719 24.391 54.719 54.688 l 0 82.969" transform="scale(.25)" style="fill:none;stroke:#f9f9f9;stroke-linecap:round;stroke-width:7.299"/>
</svg>
